icons/entity/icon_cashback-bonus_s_color.svg

<?xml version="1.0" encoding="UTF-8"?>
<svg width="18px" height="18px" viewBox="0 0 18 18" version="1.1" xmlns="http://www.w3.org/2000/svg" xmlns:xlink="http://www.w3.org/1999/xlink">
    <!-- Generator: Sketch 49 (51002) - http://www.bohemiancoding.com/sketch -->
    <title>icon_cashback-bonus_s_color</title>
    <desc>Created with Sketch.</desc>
    <defs></defs>
    <g id="icon_cashback-bonus_s_color" stroke="none" stroke-width="1" fill="none" fill-rule="evenodd">
        <g id="Group" transform="translate(3.000000, 3.000000)" fill-rule="nonzero">
            <rect id="Rectangle-path-Copy" fill="#FFD700" x="0" y="0" width="12" height="12" rx="6"></rect>
            <path d="M6.65666667,3.58991811 C6.70333334,3.71434648 7.78266666,6.64192277 7.81466667,6.72966075 C7.82400002,6.75390828 7.81799996,6.79442726 7.77966667,6.80878441 C7.74166667,6.82314156 7.18066666,7.03913644 7.1496667,7.0506221 C7.11866666,7.06242685 7.08366666,7.04519836 7.07233336,7.01456982 C7.0606667,6.98426031 6.81399996,6.2676805 6.78766663,6.19621397 L5.24,6.18983304 L4.93066666,7.01456982 C4.91966666,7.04392216 4.88633334,7.06370305 4.85333333,7.0506221 L4.22366667,6.80878441 C4.19165853,6.79571118 4.17597477,6.76091798 4.188,6.72966075 C4.228,6.61990855 5.29066666,3.73955121 5.34533333,3.58991811 C5.45033333,3.29958524 5.586,3 6.00133335,3 C6.41699997,3 6.5476667,3.29479953 6.65666667,3.58991811 Z M4.062,8.17462511 C4.02766667,8.17462511 4,8.20302026 4,8.23779641 L4,8.93714772 C4,8.97224288 4.02766667,9 4.062,9 L7.93866667,9 C7.97266663,9 8,8.97224288 8,8.93714772 L8,8.23779641 C8,8.20270124 7.97266663,8.17494413 7.93866667,8.17494413 L4.062,8.17494413 L4.062,8.17462511 Z M5.45333333,5.53578644 L6.54366667,5.53578644 L6.0566667,3.96288418 L5.92966667,3.96288418 L5.45333333,5.53578644 Z" id="Shape-Copy" fill="#0B1F35"></path>
        </g>
    </g>
</svg>

<svg width="18" height="18" viewBox="0 0 18 18" xmlns="http://www.w3.org/2000/svg"><g transform="translate(3 3)" fill-rule="nonzero" fill="none"><rect fill="gold" width="12" height="12" rx="6"/><path d="M6.657 3.59l1.158 3.14c.009.024.003.064-.035.079l-.63.242a.06.06 0 0 1-.078-.036l-.284-.819L5.24 6.19l-.31.825c-.01.029-.044.049-.077.036l-.63-.242a.062.062 0 0 1-.035-.08c.04-.11 1.103-2.99 1.157-3.14C5.45 3.3 5.586 3 6.001 3c.416 0 .547.295.656.59zM4.062 8.175A.063.063 0 0 0 4 8.238v.7c0 .034.028.062.062.062h3.877A.062.062 0 0 0 8 8.937v-.7a.062.062 0 0 0-.061-.062H4.062zm1.391-2.64h1.09l-.486-1.572H5.93l-.477 1.573z" fill="#0B1F35"/></g></svg>
